src/lib/packages/icons/src/assets/filled/layout-web-12.svg

<svg width="24" height="24" viewBox="0 0 24 24" fill="none" xmlns="http://www.w3.org/2000/svg">
<path d="M3.30005 10.75H10.95C11.116 10.75 11.25 10.884 11.25 11.05V13.95C11.25 14.116 11.116 14.25 10.95 14.25H3.30005C3.13405 14.25 3 14.116 3 13.95V11.05C3 10.884 3.13405 10.75 3.30005 10.75ZM3 16.05V17C3 19 4 20 6 20H10.95C11.116 20 11.25 19.866 11.25 19.7V16.05C11.25 15.884 11.116 15.75 10.95 15.75H3.30005C3.13405 15.75 3 15.884 3 16.05ZM18 4H6C4 4 3 5 3 7V8.94995C3 9.11595 3.13405 9.25 3.30005 9.25H20.7C20.866 9.25 21 9.11595 21 8.94995V7C21 5 20 4 18 4ZM12.75 11.05V13.95C12.75 14.116 12.884 14.25 13.05 14.25H20.7C20.866 14.25 21 14.116 21 13.95V11.05C21 10.884 20.866 10.75 20.7 10.75H13.05C12.884 10.75 12.75 10.884 12.75 11.05ZM12.75 16.05V19.7C12.75 19.866 12.884 20 13.05 20H18C20 20 21 19 21 17V16.05C21 15.884 20.866 15.75 20.7 15.75H13.05C12.884 15.75 12.75 15.884 12.75 16.05Z" fill="currentColor"/>
</svg>

<svg xmlns="http://www.w3.org/2000/svg" width="24" height="24" fill="none"><path fill="currentColor" d="M3.3 10.75h7.65a.3.3 0 0 1 .3.3v2.9a.3.3 0 0 1-.3.3H3.3a.3.3 0 0 1-.3-.3v-2.9a.3.3 0 0 1 .3-.3Zm-.3 5.3V17c0 2 1 3 3 3h4.95a.3.3 0 0 0 .3-.3v-3.65a.3.3 0 0 0-.3-.3H3.3a.3.3 0 0 0-.3.3ZM18 4H6C4 4 3 5 3 7v1.95a.3.3 0 0 0 .3.3h17.4a.3.3 0 0 0 .3-.3V7c0-2-1-3-3-3Zm-5.25 7.05v2.9a.3.3 0 0 0 .3.3h7.65a.3.3 0 0 0 .3-.3v-2.9a.3.3 0 0 0-.3-.3h-7.65a.3.3 0 0 0-.3.3Zm0 5v3.65a.3.3 0 0 0 .3.3H18c2 0 3-1 3-3v-.95a.3.3 0 0 0-.3-.3h-7.65a.3.3 0 0 0-.3.3Z"/></svg>
